packages/ui-toolkit/src/icons/svg/icon_alert.svg

<?xml version="1.0" encoding="UTF-8"?>
<svg width="12px" height="13px" viewBox="0 0 12 13" version="1.1" xmlns="http://www.w3.org/2000/svg" xmlns:xlink="http://www.w3.org/1999/xlink">
    <!-- Generator: Sketch 43.2 (39069) - http://www.bohemiancoding.com/sketch -->
    <title>icon: alert</title>
    <desc>Created with Sketch.</desc>
    <defs>
        <linearGradient x1="49.9665552%" y1="100%" x2="49.9665552%" y2="0%" id="linearGradient-1">
            <stop stop-color="#E6E6E6" offset="0%"></stop>
            <stop stop-color="#FFFFFF" offset="100%"></stop>
        </linearGradient>
    </defs>
    <g id="Page-1" stroke="none" stroke-width="1" fill="none" fill-rule="evenodd">
        <g id="creating-deployment-group:-editing-manifest" transform="translate(-1108.000000, -20.000000)" fill="url(#linearGradient-1)">
            <g id="header" transform="translate(0.000000, -1.000000)">
                <g id="button:-alerts" transform="translate(1087.000000, 1.000000)">
                    <path d="M27,33 C26.448,33 26,32.552 26,32 L28,32 C28,32.552 27.552,33 27,33 Z M30.6,27.3333333 C30.6,28.6826667 31.6752,29.7777778 33,29.7777778 L33,31 L30.6,31 L28.2,31 L25.8,31 L23.4,31 L21,31 L21,29.7777778 C22.3248,29.7777778 23.4,28.6826667 23.4,27.3333333 L23.4,26.1111111 C23.4,24.5173333 24.4044,23.1741111 25.8,22.6693333 L25.8,21.2222222 C25.8,20.5475556 26.3376,20 27,20 C27.6624,20 28.2,20.5475556 28.2,21.2222222 L28.2,22.6693333 C29.5956,23.1741111 30.6,24.5173333 30.6,26.1111111 L30.6,27.3333333 Z" id="icon:-alert"></path>
                </g>
            </g>
        </g>
    </g>
</svg>

<svg width="12" height="13" viewBox="0 0 12 13" xmlns="http://www.w3.org/2000/svg"><title>icon: alert</title><defs><linearGradient x1="49.967%" y1="100%" x2="49.967%" y2="0%" id="a"><stop stop-color="#E6E6E6" offset="0%"/><stop stop-color="#FFF" offset="100%"/></linearGradient></defs><path d="M27 33a1 1 0 0 1-1-1h2a1 1 0 0 1-1 1zm3.6-5.667c0 1.35 1.075 2.445 2.4 2.445V31H21v-1.222c1.325 0 2.4-1.095 2.4-2.445v-1.222a3.65 3.65 0 0 1 2.4-3.442v-1.447c0-.674.538-1.222 1.2-1.222.662 0 1.2.548 1.2 1.222v1.447a3.65 3.65 0 0 1 2.4 3.442v1.222z" transform="translate(-21 -20)" fill="url(#a)" fill-rule="evenodd"/></svg>
